img/mySql.svg

<?xml version="1.0" encoding="UTF-8"?>
<svg width="391pt" xmlns:xlink="http://www.w3.org/1999/xlink" xmlns="http://www.w3.org/2000/svg" height="202pt" viewBox="0 0 391 202" >
 <g transform="translate(0.738281, 121.593)" style="fill:#00618a; fill-rule:nonzero; stroke:none; stroke-width:0.87088; stroke-linecap:butt; stroke-linejoin:miter; stroke-dasharray:none;" >
  <path d="M0 62.235 C0 62.235 12.8418 62.235 12.8418 62.235 C12.8418 62.235 12.8418 11.524 12.8418 11.524 C12.8418 11.524 32.7226 55.732 32.7226 55.732 C35.0683 61.083 38.2793 62.976 44.5762 62.976 C50.874 62.976 53.9609 61.083 56.3076 55.732 C56.3076 55.732 76.1875 11.524 76.1875 11.524 C76.1875 11.524 76.1875 62.235 76.1875 62.235 C76.1875 62.235 89.0303 62.235 89.0303 62.235 C89.0303 62.235 89.0303 11.607 89.0303 11.607 C89.0303 6.668 87.0537 4.28 82.9795 3.046 C73.2246 0 66.6797 2.634 63.7158 9.22 C63.7158 9.22 44.206 52.85 44.206 52.85 C44.206 52.85 25.3135 9.22 25.3135 9.22 C22.4736 2.634 15.8056 0 6.05078 3.046 C1.97559 4.28 0 6.668 0 11.607 C0 11.607 0 62.235 0 62.235 Z" />
 </g>
 <g transform="translate(100.444, 142.416)" style="fill:#00618a; fill-rule:nonzero; stroke:none; stroke-width:0.87088; stroke-linecap:butt; stroke-linejoin:miter; stroke-dasharray:none;" >
  <path d="M0.002 0.136 C0.002 0.136 12.84 0.136 12.84 0.136 C12.84 0.136 12.84 28.074 12.84 28.074 C12.72 29.592 13.327 33.154 20.362 33.265 C23.951 33.321 48.062 33.265 48.287 33.265 C48.287 33.265 48.287 0 48.287 0 C48.287 0 61.155 0 61.155 0 C61.214 0 61.142 45.364 61.143 45.557 C61.214 56.745 47.261 59.175 40.83 59.363 C40.83 59.363 0.281 59.363 0.281 59.363 C0.281 59.363 0.281 50.724 0.281 50.724 C0.352 50.724 40.8 50.732 40.902 50.722 C49.167 49.849 48.191 45.741 48.19 44.358 C48.19 44.358 48.19 40.99 48.19 40.99 C48.19 40.99 20.895 40.99 20.895 40.99 C8.196 40.873 0.109 35.331 0.009 28.955 C0 28.364 0.283 0.415 0.002 0.136 Z" />
 </g>
 <g transform="translate(171.496, 124.557)" style="fill:#e48e00; fill-rule:nonzero; stroke:none; stroke-width:0.87088; stroke-linecap:butt; stroke-linejoin:miter; stroke-dasharray:none;" >
  <path d="M0 59.271 C0 59.271 36.92 59.271 36.92 59.271 C41.242 59.271 45.441 58.366 48.775 56.801 C54.331 54.25 57.048 50.793 57.048 46.264 C57.048 46.264 57.048 36.88 57.048 36.88 C57.048 33.175 53.961 29.717 47.91 27.413 C44.699 26.177 40.748 25.519 36.92 25.519 C36.92 25.519 21.361 25.519 21.361 25.519 C16.176 25.519 13.706 23.955 13.089 20.498 C12.965 20.086 12.965 19.756 12.965 19.345 C12.965 19.345 12.965 13.501 12.965 13.501 C12.965 13.171 12.965 12.841 13.089 12.43 C13.706 9.796 15.065 9.054 19.633 8.643 C20.004 8.643 20.497 8.56 20.868 8.56 C20.868 8.56 57.542 8.56 57.542 8.56 C57.542 8.56 57.542 0 57.542 0 C57.542 0 21.485 0 21.485 0 C16.299 0 13.582 0.329 11.113 1.069 C3.457 3.457 0.123 7.244 0.123 13.83 C0.123 13.83 0.123 21.321 0.123 21.321 C0.123 27.084 6.668 32.023 17.657 33.175 C18.893 33.257 20.127 33.339 21.361 33.339 C21.361 33.339 34.697 33.339 34.697 33.339 C35.192 33.339 35.686 33.339 36.056 33.422 C40.131 33.752 41.859 34.492 43.095 35.974 C43.835 36.714 44.082 37.456 44.082 38.279 C44.082 38.279 44.082 45.77 44.082 45.77 C44.082 46.676 43.465 47.829 42.231 48.816 C41.119 49.804 39.267 50.463 36.797 50.628 C36.303 50.628 35.933 50.71 35.439 50.71 C35.439 50.71 0 50.71 0 50.71 C0 50.71 0 59.271 0 59.271 Z" />
 </g>
 <g transform="translate(308.656, 124.557)" style="fill:#e48e00; fill-rule:nonzero; stroke:none; stroke-width:0.87088; stroke-linecap:butt; stroke-linejoin:miter; stroke-dasharray:none;" >
  <path d="M0 44.371 C0 53.179 6.544 58.119 19.757 59.107 C20.991 59.189 22.227 59.271 23.461 59.271 C23.461 59.271 56.925 59.271 56.925 59.271 C56.925 59.271 56.925 50.71 56.925 50.71 C56.925 50.71 23.214 50.71 23.214 50.71 C15.682 50.71 12.842 48.816 12.842 44.289 C12.842 44.289 12.842 0 12.842 0 C12.842 0 0 0 0 0 C0 0 0 44.371 0 44.371 Z" />
 </g>
 <g transform="translate(236.74, 124.666)" style="fill:#e48e00; fill-rule:nonzero; stroke:none; stroke-width:0.87088; stroke-linecap:butt; stroke-linejoin:miter; stroke-dasharray:none;" >
  <path d="M0 44.711 C0 44.711 0 14.189 0 14.189 C0 6.435 5.445 1.732 16.209 0.247 C17.323 0.083 18.561 0 19.674 0 C19.674 0 44.05 0 44.05 0 C45.287 0 46.402 0.083 47.639 0.247 C58.404 1.732 63.848 6.435 63.848 14.189 C63.848 14.189 63.848 44.711 63.848 44.711 C63.848 51.002 61.536 54.369 56.207 56.563 C56.207 56.563 68.857 67.981 68.857 67.981 C68.857 67.981 53.946 67.981 53.946 67.981 C53.946 67.981 43.712 58.743 43.712 58.743 C43.712 58.743 33.409 59.396 33.409 59.396 C33.409 59.396 19.674 59.396 19.674 59.396 C17.323 59.396 14.849 59.065 12.126 58.323 C3.96 56.096 0 51.806 0 44.711 Z M13.861 43.969 C13.861 44.382 13.984 44.794 14.108 45.289 C14.85 48.836 18.191 50.816 23.264 50.816 C23.264 50.816 34.931 50.816 34.931 50.816 C34.931 50.816 24.214 41.141 24.214 41.141 C24.214 41.141 39.125 41.141 39.125 41.141 C39.125 41.141 48.472 49.579 48.472 49.579 C50.194 48.661 51.328 47.257 51.724 45.454 C51.847 45.042 51.847 44.629 51.847 44.217 C51.847 44.217 51.847 14.932 51.847 14.932 C51.847 14.602 51.847 14.189 51.724 13.776 C50.981 10.477 47.64 8.58 42.691 8.58 C42.691 8.58 23.264 8.58 23.264 8.58 C17.573 8.58 13.861 11.055 13.861 14.932 C13.861 14.932 13.861 43.969 13.861 43.969 Z" />
 </g>
 <g transform="translate(241.59, -4.64258)" style="fill:#00618a; fill-rule:nonzero; stroke:none; stroke-width:0.87088; stroke-linecap:butt; stroke-linejoin:miter; stroke-dasharray:none;" >
  <path d="M135.289 114.997 C127.395 114.783 121.365 115.517 116.21 117.691 C114.745 118.309 112.409 118.325 112.17 120.161 C112.975 121.005 113.1 122.265 113.74 123.303 C114.971 125.295 117.049 127.964 118.903 129.364 C120.929 130.893 123.017 132.529 125.189 133.853 C129.052 136.209 133.365 137.554 137.085 139.914 C139.277 141.305 141.455 143.057 143.594 144.627 C144.651 145.403 145.362 146.61 146.736 147.096 C146.736 147.022 146.736 146.947 146.736 146.872 C146.014 145.953 145.828 144.689 145.165 143.729 C144.193 142.757 143.22 141.784 142.247 140.811 C139.394 137.024 135.772 133.698 131.922 130.935 C128.852 128.731 121.98 125.754 120.699 122.181 C120.624 122.106 120.55 122.031 120.474 121.956 C122.651 121.711 125.2 120.923 127.209 120.385 C130.584 119.48 133.6 119.714 137.085 118.814 C138.656 118.365 140.227 117.915 141.799 117.467 C141.799 117.167 141.799 116.869 141.799 116.569 C140.037 114.761 138.781 112.369 136.86 110.733 C131.834 106.453 126.348 102.177 120.699 98.6114 C117.566 96.6338 113.694 95.3487 110.374 93.6729 C109.257 93.1094 107.295 92.8164 106.557 91.877 C104.813 89.6533 103.863 86.835 102.518 84.2451 C99.7 78.8194 96.933 72.8936 94.437 67.1856 C92.734 63.293 91.622 59.4541 89.499 55.9619 C79.307 39.2051 68.336 29.0908 51.341 19.1494 C47.725 17.0352 43.371 16.2002 38.77 15.1094 C36.302 14.96 33.832 14.8096 31.363 14.6602 C29.856 14.0303 28.288 12.1865 26.874 11.293 C21.244 7.73633 6.803 0 2.633 10.1709 C0 16.5908 6.568 22.8555 8.917 26.1084 C10.566 28.3906 12.677 30.9492 13.855 33.5156 C14.63 35.2022 14.764 36.8936 15.427 38.6787 C17.059 43.0752 18.478 47.8584 20.589 51.9219 C21.656 53.9776 22.832 56.1436 24.181 57.9824 C25.008 59.1104 26.425 59.6074 26.649 61.3496 C25.263 63.2891 25.184 66.2998 24.405 68.7569 C20.897 79.8184 22.22 93.5674 27.323 101.754 C28.889 104.267 32.577 109.657 37.648 107.59 C42.084 105.783 41.093 100.184 42.362 95.2442 C42.649 94.124 42.473 93.3008 43.035 92.5508 C43.035 92.625 43.035 92.7002 43.035 92.7754 C44.382 95.4688 45.729 98.1621 47.076 100.855 C50.066 105.671 55.373 110.704 59.87 114.1 C62.202 115.861 64.038 118.906 67.053 119.936 C67.053 119.861 67.053 119.787 67.053 119.711 C66.977 119.711 66.903 119.711 66.828 119.711 C66.244 118.8 65.33 118.423 64.584 117.691 C62.827 115.969 60.874 113.828 59.421 111.855 C55.331 106.302 51.716 100.224 48.423 93.8975 C46.85 90.877 45.483 87.544 44.157 84.4697 C43.646 83.2842 43.652 81.4922 42.587 80.878 C41.135 83.1309 38.996 84.9522 37.873 87.6123 C36.077 91.8643 35.845 97.0498 35.18 102.427 C34.786 102.568 34.961 102.471 34.73 102.651 C31.604 101.897 30.505 98.6787 29.344 95.918 C26.405 88.9356 25.859 77.6924 28.445 69.6553 C29.114 67.5762 32.138 61.0264 30.914 59.1055 C30.33 57.1885 28.402 56.0801 27.323 54.6153 C25.988 52.8047 24.655 50.4209 23.731 48.3301 C21.326 42.8858 20.203 36.7744 17.671 31.2715 C16.461 28.6406 14.414 25.9785 12.733 23.6397 C10.872 21.0489 8.788 19.1406 7.346 16.0069 C6.833 14.8936 6.136 13.1113 6.897 11.9668 C7.139 11.1943 7.48 10.8721 8.244 10.6201 C9.546 9.61621 13.172 10.9541 14.528 11.5176 C18.128 13.0127 21.132 14.4365 24.181 16.4561 C25.645 17.4268 27.125 19.3037 28.894 19.8233 C29.567 19.8233 30.241 19.8233 30.914 19.8233 C34.074 20.5498 37.614 20.0489 40.566 20.9453 C45.784 22.5313 50.46 24.9981 54.707 27.6797 C67.645 35.8487 78.223 47.4776 85.459 61.3496 C86.623 63.583 87.127 65.7149 88.152 68.084 C90.221 72.8614 92.827 77.7774 94.885 82.4492 C96.939 87.1104 98.941 91.8145 101.844 95.6934 C103.371 97.7324 109.266 98.8262 111.945 99.958 C113.823 100.752 116.9 101.579 118.679 102.651 C122.077 104.701 125.369 107.141 128.556 109.386 C130.149 110.508 135.045 112.969 135.289 114.997 Z" />
 </g>
 <g transform="translate(272.504, 24.8027)" style="fill:#00618a; fill-rule:evenodd; stroke:none; stroke-width:0.87088; stroke-linecap:butt; stroke-linejoin:miter; stroke-dasharray:none;" >
  <path d="M4.041 0.0303 C2.395 0 1.231 0.21 0 0.4786 C0 0.5537 0 0.6289 0 0.7032 C0.075 0.7032 0.15 0.7032 0.225 0.7032 C1.01 2.3164 2.396 3.3545 3.367 4.7442 C4.115 6.3155 4.863 7.8868 5.612 9.4571 C5.686 9.3828 5.762 9.3077 5.836 9.2334 C7.226 8.2539 7.863 6.6866 7.856 4.295 C7.299 3.709 7.217 2.9737 6.734 2.2744 C6.092 1.3428 4.85 0.8135 4.041 0.0303 Z" />
 </g>
 <g transform="translate(371.609, 165.56)" style="fill:#e48e00; fill-rule:evenodd; stroke:none; stroke-width:1; stroke-linecap:butt; stroke-linejoin:miter; stroke-dasharray:none;" >
  <path d="M0 9.463 C0 15.117 4.467 18.927 9.464 18.927 C14.461 18.927 18.928 15.117 18.928 9.463 C18.928 3.81 14.461 0 9.464 0 C4.467 0 0 3.81 0 9.463 Z M16.808 9.463 C16.808 13.753 13.528 16.959 9.464 16.959 C5.351 16.959 2.12 13.753 2.12 9.463 C2.12 5.173 5.351 1.967 9.464 1.967 C13.528 1.967 16.808 5.173 16.808 9.463 Z M12.014 14.864 C12.014 14.864 14.133 14.864 14.133 14.864 C14.133 14.864 11.03 10.12 11.03 10.12 C12.695 9.943 13.956 9.135 13.956 7.167 C13.956 4.971 12.569 4.063 9.894 4.063 C9.894 4.063 5.679 4.063 5.679 4.063 C5.679 4.063 5.679 14.864 5.679 14.864 C5.679 14.864 7.496 14.864 7.496 14.864 C7.496 14.864 7.496 10.195 7.496 10.195 C7.496 10.195 9.187 10.195 9.187 10.195 C9.187 10.195 12.014 14.864 12.014 14.864 Z M7.496 8.681 C7.496 8.681 7.496 5.577 7.496 5.577 C7.496 5.577 9.59 5.577 9.59 5.577 C10.676 5.577 11.988 5.779 11.988 7.041 C11.988 8.554 10.802 8.681 9.439 8.681 C9.439 8.681 7.496 8.681 7.496 8.681 Z" />
 </g>
</svg>

<?xml version="1.0" encoding="UTF-8" standalone="no"?>
<svg height="202pt" width="391pt" xmlns:xlink="http://www.w3.org/1999/xlink" viewBox="0 0 391 202" xmlns="http://www.w3.org/2000/svg">
 <g fill="#00618a" transform="translate(.73828 121.59)">
  <path d="m0 62.235h12.842v-50.711s19.881 44.208 19.881 44.208c2.345 5.351 5.556 7.244 11.853 7.244 6.298 0 9.385-1.893 11.732-7.244 0 0 19.88-44.208 19.88-44.208v50.711h12.842v-50.628c0-4.939-1.976-7.327-6.05-8.561-9.755-3.046-16.3-0.412-19.264 6.174l-19.51 43.63s-18.892-43.63-18.892-43.63c-2.84-6.586-9.508-9.22-19.263-6.174-4.0754 1.234-6.051 3.622-6.051 8.561v50.628z"/>
 </g>
 <g fill="#00618a" transform="translate(100.44 142.42)">
  <path d="m0.002 0.136h12.838v27.938c-0.12 1.518 0.487 5.08 7.522 5.191 3.589 0.056 27.7 0 27.925 0v-33.265h12.868c0.059 0-0.013 45.364-0.012 45.557 0.071 11.188-13.882 13.618-20.313 13.806h-40.549v-8.639c0.071 0 40.519 0.008 40.621-0.002 8.265-0.873 7.289-4.981 7.288-6.364v-3.368h-27.295c-12.699-0.117-20.786-5.659-20.886-12.035-0.009-0.591 0.274-28.54-0.007-28.819z"/>
 </g>
 <g fill="#e48e00" transform="translate(171.5 124.56)">
  <path d="m0 59.271h36.92c4.322 0 8.521-0.905 11.855-2.47 5.556-2.551 8.273-6.008 8.273-10.537v-9.384c0-3.705-3.087-7.163-9.138-9.467-3.211-1.236-7.162-1.894-10.99-1.894h-15.559c-5.185 0-7.655-1.564-8.272-5.021-0.124-0.412-0.124-0.742-0.124-1.153v-5.844c0-0.33 0-0.66 0.124-1.071 0.617-2.634 1.976-3.376 6.544-3.787 0.371 0 0.864-0.083 1.235-0.083h36.674v-8.56h-36.057c-5.186 0-7.903 0.329-10.372 1.069-7.656 2.388-10.99 6.175-10.99 12.761v7.491c0 5.763 6.545 10.702 17.534 11.854 1.236 0.082 2.47 0.164 3.704 0.164h13.336c0.495 0 0.989 0 1.359 0.083 4.075 0.33 5.803 1.07 7.039 2.552 0.74 0.74 0.987 1.482 0.987 2.305v7.491c0 0.906-0.617 2.059-1.851 3.046-1.112 0.988-2.964 1.647-5.434 1.812-0.494 0-0.864 0.082-1.358 0.082h-35.439v8.561z"/>
 </g>
 <g fill="#e48e00" transform="translate(308.66 124.56)">
  <path d="m0 44.371c0 8.808 6.544 13.748 19.757 14.736 1.234 0.082 2.47 0.164 3.704 0.164h33.464v-8.561h-33.711c-7.532 0-10.372-1.894-10.372-6.421v-44.289h-12.842v44.371z"/>
 </g>
 <g fill="#e48e00" transform="translate(236.74 124.67)">
  <path d="m0 44.711v-30.522c0-7.754 5.445-12.457 16.209-13.942 1.114-0.164 2.352-0.247 3.465-0.247h24.376c1.237 0 2.352 0.083 3.589 0.247 10.765 1.485 16.209 6.188 16.209 13.942v30.522c0 6.291-2.312 9.658-7.641 11.852l12.65 11.418h-14.911l-10.234-9.238-10.303 0.653h-13.735c-2.351 0-4.825-0.331-7.548-1.073-8.166-2.227-12.126-6.517-12.126-13.612zm13.861-0.742c0 0.413 0.123 0.825 0.247 1.32 0.742 3.547 4.083 5.527 9.156 5.527h11.667l-10.717-9.675h14.911l9.347 8.438c1.722-0.918 2.856-2.322 3.252-4.125 0.123-0.412 0.123-0.825 0.123-1.237v-29.285c0-0.33 0-0.743-0.123-1.156-0.743-3.299-4.084-5.196-9.033-5.196h-19.427c-5.691 0-9.403 2.475-9.403 6.352v29.037z"/>
 </g>
 <g fill="#00618a" transform="translate(241.59 -4.6426)">
  <path d="m135.29 115c-7.89-0.22-13.93 0.52-19.08 2.69-1.47 0.62-3.8 0.63-4.04 2.47 0.81 0.84 0.93 2.1 1.57 3.14 1.23 2 3.31 4.66 5.16 6.06 2.03 1.53 4.12 3.17 6.29 4.49 3.86 2.36 8.17 3.7 11.89 6.06 2.2 1.39 4.38 3.15 6.51 4.72 1.06 0.77 1.77 1.98 3.15 2.47v-0.23c-0.73-0.92-0.91-2.18-1.58-3.14-0.97-0.97-1.94-1.95-2.91-2.92-2.86-3.79-6.48-7.11-10.33-9.87-3.07-2.21-9.94-5.19-11.22-8.76-0.08-0.07-0.15-0.15-0.23-0.22 2.18-0.25 4.73-1.04 6.74-1.58 3.37-0.9 6.39-0.67 9.87-1.57 1.58-0.45 3.15-0.89 4.72-1.34v-0.9c-1.76-1.81-3.02-4.2-4.94-5.84-5.03-4.28-10.51-8.55-16.16-12.119-3.13-1.977-7.01-3.262-10.33-4.938-1.11-0.564-3.07-0.857-3.81-1.796-1.75-2.224-2.7-5.042-4.04-7.632-2.82-5.426-5.587-11.351-8.083-17.059-1.703-3.893-2.815-7.732-4.938-11.224-10.192-16.757-21.163-26.871-38.158-36.813-3.616-2.114-7.97-2.949-12.571-4.04-2.468-0.149-4.938-0.299-7.407-0.449-1.507-0.63-3.075-2.474-4.489-3.367-5.63-3.5567-20.071-11.293-24.241-1.122-2.633 6.42 3.935 12.685 6.284 15.937 1.649 2.283 3.76 4.841 4.938 7.408 0.775 1.686 0.909 3.378 1.572 5.163 1.632 4.396 3.051 9.179 5.162 13.243 1.067 2.056 2.243 4.222 3.592 6.06 0.827 1.128 2.244 1.625 2.468 3.368-1.386 1.939-1.465 4.95-2.244 7.407-3.508 11.061-2.185 24.81 2.918 32.993 1.566 2.52 5.254 7.91 10.325 5.84 4.436-1.81 3.445-7.41 4.714-12.346 0.287-1.12 0.111-1.943 0.673-2.693v0.224c1.347 2.694 2.694 5.387 4.041 8.085 2.99 4.81 8.297 9.84 12.794 13.24 2.332 1.76 4.168 4.81 7.183 5.84v-0.23h-0.225c-0.584-0.91-1.498-1.29-2.244-2.02-1.757-1.72-3.71-3.86-5.163-5.83-4.09-5.56-7.705-11.64-10.998-17.962-1.573-3.021-2.94-6.354-4.266-9.428-0.511-1.186-0.505-2.978-1.57-3.592-1.452 2.253-3.591 4.074-4.714 6.734-1.796 4.252-2.028 9.438-2.693 14.818-0.394 0.14-0.219 0.04-0.45 0.22-3.126-0.75-4.225-3.971-5.386-6.732-2.939-6.982-3.485-18.226-0.899-26.263 0.669-2.079 3.693-8.629 2.469-10.549-0.584-1.918-2.512-3.026-3.591-4.491-1.335-1.81-2.668-4.194-3.592-6.285-2.405-5.444-3.528-11.556-6.06-17.058-1.21-2.631-3.257-5.294-4.938-7.632-1.861-2.591-3.945-4.499-5.387-7.633-0.513-1.113-1.21-2.896-0.449-4.04 0.242-0.773 0.583-1.095 1.347-1.347 1.302-1.0038 4.928 0.334 6.284 0.898 3.6 1.495 6.604 2.918 9.653 4.938 1.464 0.971 2.944 2.848 4.713 3.367h2.02c3.16 0.727 6.7 0.226 9.652 1.122 5.218 1.586 9.894 4.053 14.141 6.735 12.938 8.169 23.516 19.798 30.752 33.67 1.164 2.233 1.668 4.365 2.693 6.734 2.069 4.777 4.675 9.693 6.733 14.365 2.054 4.661 4.056 9.365 6.955 13.244 1.53 2.039 7.43 3.133 10.1 4.265 1.88 0.792 4.96 1.622 6.74 2.692 3.4 2.05 6.69 4.49 9.88 6.74 1.59 1.12 6.48 3.58 6.73 5.61z"/>
 </g>
 <g fill="#00618a" transform="translate(272.5 24.803)" fill-rule="evenodd">
  <path d="m4.041 0.0303c-1.646-0.0303-2.81 0.1797-4.041 0.4483v0.2246h0.225c0.785 1.6132 2.171 2.6513 3.142 4.041 0.748 1.5713 1.496 3.1426 2.245 4.7129 0.074-0.0743 0.15-0.1494 0.224-0.2237 1.39-0.9795 2.027-2.5468 2.02-4.9384-0.557-0.586-0.639-1.3213-1.122-2.0206-0.642-0.9316-1.884-1.4609-2.693-2.2441z"/>
 </g>
 <g fill="#e48e00" transform="translate(371.61 165.56)" fill-rule="evenodd">
  <path d="m0 9.463c0 5.654 4.467 9.464 9.464 9.464s9.464-3.81 9.464-9.464c0-5.653-4.467-9.463-9.464-9.463s-9.464 3.81-9.464 9.463zm16.808 0c0 4.29-3.28 7.496-7.344 7.496-4.113 0-7.344-3.206-7.344-7.496s3.231-7.496 7.344-7.496c4.064 0 7.344 3.206 7.344 7.496zm-4.794 5.401h2.119s-3.103-4.744-3.103-4.744c1.665-0.177 2.926-0.985 2.926-2.953 0-2.196-1.387-3.104-4.062-3.104h-4.215v10.801h1.817v-4.669h1.691s2.827 4.669 2.827 4.669zm-4.518-6.183v-3.104h2.094c1.086 0 2.398 0.202 2.398 1.464 0 1.513-1.186 1.64-2.549 1.64h-1.943z"/>
 </g>
</svg>
